icons/tn.svg

<?xml version="1.0" ?>
<svg xmlns="http://www.w3.org/2000/svg" xmlns:ev="http://www.w3.org/2001/xml-events" xmlns:xlink="http://www.w3.org/1999/xlink" baseProfile="full" height="600px" version="1.1" viewBox="1934.2386656605297 -1020.3518344080453 6365.993763721093 12284.368054282779" width="311px">
	<defs/>
	<path d="M 5470.0,10221.0 C 5443.0,10201.0 5399.0,10189.0 5246.0,10159.0 C 5192.0,10149.0 5141.0,10135.0 5134.0,10129.0 C 5116.0,10114.0 4977.0,10105.0 4954.0,10118.0 C 4938.0,10127.0 4925.0,10119.0 4870.0,10066.0 C 4808.0,10006.0 4801.0,10002.0 4744.0,9995.0 C 4685.0,9989.0 4680.0,9986.0 4619.0,9923.0 C 4584.0,9887.0 4521.0,9830.0 4480.0,9797.0 L 4405.0,9735.0 L 4330.0,9734.0 C 4288.0,9733.0 4239.0,9726.0 4218.0,9717.0 C 4184.0,9703.0 4181.0,9698.0 4165.0,9626.0 L 4148.0,9550.0 L 4062.0,9498.0 C 4014.0,9470.0 3972.0,9442.0 3968.0,9436.0 C 3964.0,9430.0 3960.0,9391.0 3960.0,9349.0 L 3960.0,9273.0 L 3855.0,9252.0 L 3749.0,9231.0 L 3669.0,9158.0 L 3589.0,9085.0 L 3724.0,9020.0 L 3858.0,8955.0 L 3793.0,8810.0 C 3705.0,8615.0 3647.0,8395.0 3631.0,8189.0 L 3619.0,8043.0 L 3675.0,7947.0 L 3730.0,7851.0 L 3730.0,7719.0 C 3730.0,7591.0 3729.0,7586.0 3699.0,7534.0 L 3669.0,7481.0 L 3682.0,7393.0 L 3696.0,7305.0 L 3751.0,7302.0 L 3806.0,7299.0 L 3823.0,7233.0 L 3840.0,7166.0 L 3798.0,7121.0 C 3774.0,7096.0 3729.0,7048.0 3698.0,7015.0 L 3640.0,6955.0 L 3555.0,6663.0 C 3508.0,6502.0 3470.0,6368.0 3470.0,6365.0 C 3470.0,6363.0 3434.0,6344.0 3390.0,6324.0 L 3311.0,6288.0 L 3317.0,6245.0 C 3324.0,6194.0 3325.0,6194.0 3189.0,6185.0 L 3093.0,6178.0 L 3014.0,6063.0 C 2945.0,5963.0 2932.0,5936.0 2909.0,5852.0 C 2879.0,5741.0 2897.0,5751.0 2743.0,5763.0 L 2662.0,5770.0 L 2602.0,5720.0 C 2546.0,5674.0 2541.0,5665.0 2517.0,5588.0 C 2497.0,5524.0 2488.0,5466.0 2480.0,5340.0 L 2469.0,5175.0 L 2500.0,5045.0 C 2528.0,4927.0 2537.0,4904.0 2604.0,4790.0 C 2667.0,4684.0 2686.0,4639.0 2731.0,4497.0 L 2784.0,4328.0 L 2874.0,4282.0 C 2936.0,4250.0 2982.0,4217.0 3020.0,4178.0 C 3064.0,4133.0 3087.0,4118.0 3134.0,4103.0 C 3192.0,4086.0 3196.0,4082.0 3289.0,3965.0 C 3341.0,3899.0 3387.0,3840.0 3391.0,3835.0 C 3395.0,3829.0 3413.0,3721.0 3430.0,3595.0 C 3446.0,3468.0 3462.0,3355.0 3465.0,3343.0 C 3468.0,3329.0 3623.0,3206.0 3917.0,2984.0 C 4164.0,2799.0 4366.0,2646.0 4367.0,2645.0 C 4368.0,2645.0 4492.0,2052.0 4641.0,1329.0 C 4790.0,607.0 4916.0,12.0 4919.0,8.0 C 4923.0,4.0 5013.0,31.0 5120.0,69.0 C 5267.0,121.0 5349.0,144.0 5453.0,161.0 L 5591.0,185.0 L 5779.0,416.0 L 5967.0,647.0 L 5999.0,851.0 C 6016.0,963.0 6030.0,1065.0 6030.0,1076.0 C 6030.0,1088.0 5994.0,1215.0 5950.0,1358.0 L 5870.0,1618.0 L 5876.0,1720.0 L 5883.0,1821.0 L 5977.0,1925.0 L 6071.0,2028.0 L 6193.0,2060.0 L 6315.0,2092.0 L 6363.0,2158.0 C 6390.0,2195.0 6425.0,2246.0 6441.0,2272.0 C 6457.0,2298.0 6491.0,2336.0 6517.0,2355.0 C 6558.0,2385.0 6572.0,2390.0 6611.0,2388.0 L 6658.0,2385.0 L 6753.0,2495.0 L 6848.0,2605.0 L 7107.0,2739.0 C 7337.0,2857.0 7376.0,2880.0 7445.0,2943.0 C 7503.0,2996.0 7544.0,3024.0 7604.0,3050.0 L 7684.0,3085.0 L 7714.0,3152.0 L 7743.0,3219.0 L 7665.0,3337.0 L 7587.0,3454.0 L 7599.0,3510.0 C 7605.0,3540.0 7613.0,3576.0 7617.0,3589.0 C 7622.0,3611.0 7621.0,3611.0 7600.0,3600.0 C 7577.0,3588.0 7577.0,3589.0 7583.0,3626.0 C 7587.0,3647.0 7603.0,3684.0 7620.0,3708.0 C 7647.0,3746.0 7651.0,3762.0 7657.0,3843.0 C 7662.0,3920.0 7660.0,3937.0 7647.0,3949.0 C 7624.0,3968.0 7571.0,3954.0 7558.0,3925.0 C 7537.0,3879.0 7522.0,3888.0 7508.0,3953.0 C 7496.0,4011.0 7493.0,4015.0 7460.0,4024.0 C 7428.0,4033.0 7411.0,4046.0 7410.0,4061.0 C 7410.0,4064.0 7439.0,4061.0 7474.0,4055.0 C 7526.0,4045.0 7542.0,4045.0 7564.0,4057.0 C 7584.0,4068.0 7595.0,4068.0 7611.0,4059.0 C 7623.0,4053.0 7657.0,4048.0 7688.0,4047.0 C 7740.0,4047.0 7743.0,4048.0 7756.0,4080.0 C 7773.0,4120.0 7770.0,4126.0 7723.0,4135.0 C 7702.0,4138.0 7662.0,4156.0 7634.0,4174.0 C 7570.0,4217.0 7499.0,4253.0 7493.0,4246.0 C 7490.0,4244.0 7500.0,4224.0 7514.0,4203.0 C 7528.0,4183.0 7540.0,4161.0 7540.0,4156.0 C 7540.0,4151.0 7498.0,4149.0 7440.0,4153.0 C 7319.0,4159.0 7282.0,4178.0 7244.0,4251.0 C 7222.0,4295.0 7221.0,4301.0 7236.0,4307.0 C 7245.0,4310.0 7282.0,4306.0 7318.0,4298.0 C 7356.0,4288.0 7392.0,4285.0 7404.0,4290.0 C 7421.0,4296.0 7410.0,4302.0 7350.0,4320.0 C 7302.0,4334.0 7264.0,4353.0 7244.0,4372.0 C 7220.0,4395.0 7207.0,4400.0 7190.0,4395.0 C 7168.0,4388.0 7167.0,4390.0 7173.0,4428.0 C 7177.0,4450.0 7175.0,4481.0 7169.0,4498.0 C 7161.0,4523.0 7162.0,4535.0 7179.0,4569.0 C 7191.0,4591.0 7200.0,4619.0 7200.0,4631.0 C 7200.0,4654.0 7151.0,4750.0 7140.0,4750.0 C 7136.0,4750.0 7105.0,4768.0 7073.0,4790.0 L 7013.0,4830.0 L 6964.0,4813.0 C 6937.0,4804.0 6914.0,4796.0 6912.0,4795.0 C 6911.0,4794.0 6914.0,4780.0 6920.0,4765.0 C 6947.0,4694.0 6891.0,4638.0 6766.0,4612.0 C 6701.0,4599.0 6696.0,4599.0 6671.0,4617.0 C 6657.0,4628.0 6638.0,4649.0 6630.0,4663.0 C 6616.0,4688.0 6617.0,4691.0 6654.0,4729.0 C 6688.0,4764.0 6694.0,4777.0 6697.0,4822.0 C 6703.0,4898.0 6694.0,4907.0 6627.0,4893.0 C 6597.0,4887.0 6543.0,4870.0 6507.0,4856.0 C 6449.0,4832.0 6438.0,4831.0 6389.0,4840.0 C 6271.0,4864.0 6212.0,4897.0 6079.0,5017.0 C 5925.0,5155.0 5899.0,5188.0 5860.0,5285.0 C 5843.0,5327.0 5819.0,5383.0 5805.0,5410.0 C 5771.0,5476.0 5771.0,5553.0 5804.0,5618.0 C 5817.0,5644.0 5834.0,5684.0 5841.0,5708.0 C 5850.0,5741.0 5864.0,5759.0 5896.0,5781.0 C 5920.0,5797.0 5948.0,5823.0 5959.0,5839.0 C 5976.0,5863.0 5988.0,5868.0 6035.0,5872.0 C 6065.0,5875.0 6098.0,5884.0 6107.0,5892.0 C 6117.0,5901.0 6141.0,5911.0 6160.0,5915.0 C 6202.0,5924.0 6261.0,5965.0 6286.0,6002.0 C 6297.0,6018.0 6331.0,6041.0 6365.0,6056.0 C 6499.0,6115.0 6526.0,6131.0 6545.0,6160.0 C 6556.0,6176.0 6573.0,6193.0 6583.0,6196.0 C 6592.0,6199.0 6607.0,6215.0 6615.0,6231.0 C 6624.0,6248.0 6642.0,6262.0 6658.0,6266.0 C 6718.0,6281.0 6740.0,6299.0 6740.0,6334.0 C 6740.0,6361.0 6749.0,6375.0 6783.0,6407.0 C 6806.0,6428.0 6839.0,6451.0 6855.0,6458.0 C 6872.0,6466.0 6909.0,6504.0 6943.0,6548.0 C 6987.0,6607.0 7000.0,6632.0 7000.0,6660.0 C 7001.0,6707.0 7016.0,6730.0 7077.0,6778.0 C 7120.0,6813.0 7129.0,6825.0 7135.0,6862.0 C 7148.0,6948.0 7152.0,6959.0 7172.0,6966.0 C 7183.0,6969.0 7198.0,6986.0 7205.0,7004.0 C 7213.0,7022.0 7225.0,7042.0 7233.0,7049.0 C 7241.0,7055.0 7251.0,7072.0 7254.0,7085.0 C 7259.0,7103.0 7269.0,7111.0 7295.0,7116.0 C 7326.0,7121.0 7329.0,7124.0 7318.0,7138.0 C 7311.0,7146.0 7282.0,7163.0 7254.0,7176.0 C 7215.0,7193.0 7197.0,7209.0 7177.0,7242.0 C 7155.0,7280.0 7153.0,7293.0 7157.0,7355.0 C 7160.0,7394.0 7168.0,7434.0 7175.0,7445.0 C 7198.0,7482.0 7197.0,7504.0 7172.0,7538.0 C 7152.0,7566.0 7148.0,7580.0 7152.0,7621.0 C 7157.0,7669.0 7156.0,7671.0 7103.0,7729.0 C 7059.0,7778.0 7043.0,7789.0 7007.0,7795.0 C 6931.0,7807.0 6930.0,7807.0 6930.0,7855.0 C 6930.0,7895.0 6926.0,7902.0 6893.0,7924.0 C 6859.0,7948.0 6854.0,7948.0 6833.0,7935.0 C 6821.0,7927.0 6794.0,7920.0 6773.0,7921.0 C 6738.0,7921.0 6730.0,7927.0 6666.0,8007.0 C 6615.0,8070.0 6589.0,8114.0 6566.0,8174.0 C 6549.0,8219.0 6522.0,8272.0 6506.0,8293.0 L 6478.0,8330.0 L 6482.0,8467.0 L 6487.0,8605.0 L 6537.0,8715.0 L 6588.0,8825.0 L 6638.0,8830.0 C 6665.0,8833.0 6695.0,8841.0 6704.0,8849.0 C 6713.0,8857.0 6766.0,8875.0 6821.0,8891.0 C 6877.0,8906.0 6924.0,8920.0 6925.0,8922.0 C 6926.0,8924.0 6950.0,8970.0 6978.0,9025.0 C 7066.0,9201.0 7267.0,9458.0 7304.0,9444.0 C 7312.0,9441.0 7327.0,9451.0 7339.0,9465.0 C 7358.0,9491.0 7359.0,9494.0 7343.0,9528.0 C 7334.0,9549.0 7325.0,9581.0 7322.0,9600.0 C 7320.0,9619.0 7309.0,9647.0 7298.0,9663.0 C 7285.0,9682.0 7280.0,9699.0 7285.0,9718.0 C 7289.0,9740.0 7284.0,9752.0 7258.0,9777.0 L 7225.0,9809.0 L 7152.0,9775.0 C 7094.0,9747.0 7076.0,9733.0 7063.0,9704.0 C 7035.0,9646.0 6900.0,9572.0 6773.0,9544.0 L 6692.0,9527.0 L 6651.0,9455.0 C 6628.0,9416.0 6610.0,9377.0 6610.0,9368.0 C 6610.0,9357.0 6592.0,9350.0 6541.0,9341.0 C 6442.0,9325.0 6400.0,9327.0 6362.0,9350.0 C 6344.0,9361.0 6323.0,9385.0 6316.0,9402.0 C 6303.0,9433.0 6301.0,9434.0 6245.0,9431.0 C 6185.0,9428.0 6170.0,9437.0 6170.0,9473.0 C 6170.0,9498.0 6223.0,9518.0 6309.0,9526.0 C 6348.0,9530.0 6380.0,9536.0 6380.0,9540.0 C 6380.0,9557.0 6302.0,9617.0 6259.0,9633.0 C 6207.0,9653.0 6194.0,9673.0 6175.0,9764.0 C 6159.0,9836.0 6164.0,9850.0 6201.0,9850.0 C 6223.0,9850.0 6230.0,9855.0 6230.0,9870.0 C 6230.0,9881.0 6224.0,9892.0 6218.0,9894.0 C 6211.0,9896.0 6183.0,9904.0 6156.0,9911.0 C 6112.0,9922.0 6109.0,9925.0 6126.0,9937.0 C 6136.0,9944.0 6156.0,9950.0 6172.0,9950.0 C 6204.0,9950.0 6280.0,9978.0 6280.0,9990.0 C 6280.0,10004.0 6262.0,10012.0 6105.0,10071.0 L 5955.0,10127.0 L 5913.0,10108.0 C 5877.0,10092.0 5864.0,10091.0 5831.0,10100.0 C 5797.0,10109.0 5789.0,10116.0 5780.0,10148.0 C 5775.0,10168.0 5770.0,10191.0 5770.0,10197.0 C 5770.0,10204.0 5760.0,10212.0 5748.0,10214.0 C 5676.0,10229.0 5647.0,10232.0 5575.0,10235.0 C 5510.0,10238.0 5490.0,10235.0 5470.0,10221.0" fill="pink"/>
	<path d="M 6924.0,5186.0 C 6915.0,5163.0 6864.0,5156.0 6838.0,5174.0 C 6811.0,5193.0 6752.0,5194.0 6729.0,5177.0 C 6689.0,5147.0 6678.0,5022.0 6710.0,4960.0 C 6729.0,4923.0 6750.0,4907.0 6750.0,4930.0 C 6750.0,4947.0 6806.0,4941.0 6823.0,4922.0 C 6833.0,4912.0 6840.0,4887.0 6840.0,4868.0 C 6840.0,4848.0 6846.0,4827.0 6854.0,4821.0 C 6866.0,4811.0 6872.0,4814.0 6886.0,4834.0 C 6909.0,4871.0 6990.0,4924.0 6990.0,4904.0 C 6990.0,4879.0 7008.0,4898.0 7015.0,4931.0 C 7021.0,4955.0 7032.0,4966.0 7067.0,4982.0 L 7111.0,5001.0 L 7108.0,5053.0 C 7105.0,5102.0 7103.0,5105.0 7075.0,5110.0 C 7038.0,5116.0 7009.0,5136.0 6986.0,5173.0 C 6966.0,5202.0 6933.0,5209.0 6924.0,5186.0" fill="pink"/>
</svg>

<?xml version="1.0" standalone="no"?>
<!DOCTYPE svg PUBLIC "-//W3C//DTD SVG 20010904//EN"
 "http://www.w3.org/TR/2001/REC-SVG-20010904/DTD/svg10.dtd">
<svg version="1.0" xmlns="http://www.w3.org/2000/svg"
 width="1024.000000pt" height="1024.000000pt" viewBox="0 0 1024.000000 1024.000000"
 preserveAspectRatio="xMidYMid meet">
<metadata>
Created by potrace 1.10, written by Peter Selinger 2001-2011
</metadata>
<g transform="translate(0.000000,1024.000000) scale(0.100000,-0.100000)"
fill="#000000" stroke="none">
<path d="M5470 10221 c-27 -20 -71 -32 -224 -62 -54 -10 -105 -24 -112 -30
-18 -15 -157 -24 -180 -11 -16 9 -29 1 -84 -52 -62 -60 -69 -64 -126 -71 -59
-6 -64 -9 -125 -72 -35 -36 -98 -93 -139 -126 l-75 -62 -75 -1 c-42 -1 -91 -8
-112 -17 -34 -14 -37 -19 -53 -91 l-17 -76 -86 -52 c-48 -28 -90 -56 -94 -62
-4 -6 -8 -45 -8 -87 l0 -76 -105 -21 -106 -21 -80 -73 -80 -73 135 -65 134
-65 -65 -145 c-88 -195 -146 -415 -162 -621 l-12 -146 56 -96 55 -96 0 -132
c0 -128 -1 -133 -31 -185 l-30 -53 13 -88 14 -88 55 -3 55 -3 17 -66 17 -67
-42 -45 c-24 -25 -69 -73 -100 -106 l-58 -60 -85 -292 c-47 -161 -85 -295 -85
-298 0 -2 -36 -21 -80 -41 l-79 -36 6 -43 c7 -51 8 -51 -128 -60 l-96 -7 -79
-115 c-69 -100 -82 -127 -105 -211 -30 -111 -12 -101 -166 -89 l-81 7 -60 -50
c-56 -46 -61 -55 -85 -132 -20 -64 -29 -122 -37 -248 l-11 -165 31 -130 c28
-118 37 -141 104 -255 63 -106 82 -151 127 -293 l53 -169 90 -46 c62 -32 108
-65 146 -104 44 -45 67 -60 114 -75 58 -17 62 -21 155 -138 52 -66 98 -125
102 -130 4 -6 22 -114 39 -240 16 -127 32 -240 35 -252 3 -14 158 -137 452
-359 247 -185 449 -338 450 -339 1 0 125 -593 274 -1316 149 -722 275 -1317
278 -1321 4 -4 94 23 201 61 147 52 229 75 333 92 l138 24 188 231 188 231 32
204 c17 112 31 214 31 225 0 12 -36 139 -80 282 l-80 260 6 102 7 101 94 104
94 103 122 32 122 32 48 66 c27 37 62 88 78 114 16 26 50 64 76 83 41 30 55
35 94 33 l47 -3 95 110 95 110 259 134 c230 118 269 141 338 204 58 53 99 81
159 107 l80 35 30 67 29 67 -78 118 -78 117 12 56 c6 30 14 66 18 79 5 22 4
22 -17 11 -23 -12 -23 -11 -17 26 4 21 20 58 37 82 27 38 31 54 37 135 5 77 3
94 -10 106 -23 19 -76 5 -89 -24 -21 -46 -36 -37 -50 28 -12 58 -15 62 -48 71
-32 9 -49 22 -50 37 0 3 29 0 64 -6 52 -10 68 -10 90 2 20 11 31 11 47 2 12
-6 46 -11 77 -12 52 0 55 1 68 33 17 40 14 46 -33 55 -21 3 -61 21 -89 39 -64
43 -135 79 -141 72 -3 -2 7 -22 21 -43 14 -20 26 -42 26 -47 0 -5 -42 -7 -100
-3 -121 6 -158 25 -196 98 -22 44 -23 50 -8 56 9 3 46 -1 82 -9 38 -10 74 -13
86 -8 17 6 6 12 -54 30 -48 14 -86 33 -106 52 -24 23 -37 28 -54 23 -22 -7
-23 -5 -17 33 4 22 2 53 -4 70 -8 25 -7 37 10 71 12 22 21 50 21 62 0 23 -49
119 -60 119 -4 0 -35 18 -67 40 l-60 40 -49 -17 c-27 -9 -50 -17 -52 -18 -1
-1 2 -15 8 -30 27 -71 -29 -127 -154 -153 -65 -13 -70 -13 -95 5 -14 11 -33
32 -41 46 -14 25 -13 28 24 66 34 35 40 48 43 93 6 76 -3 85 -70 71 -30 -6
-84 -23 -120 -37 -58 -24 -69 -25 -118 -16 -118 24 -177 57 -310 177 -154 138
-180 171 -219 268 -17 42 -41 98 -55 125 -34 66 -34 143 -1 208 13 26 30 66
37 90 9 33 23 51 55 73 24 16 52 42 63 58 17 24 29 29 76 33 30 3 63 12 72 20
10 9 34 19 53 23 42 9 101 50 126 87 11 16 45 39 79 54 134 59 161 75 180 104
11 16 28 33 38 36 9 3 24 19 32 35 9 17 27 31 43 35 60 15 82 33 82 68 0 27 9
41 43 73 23 21 56 44 72 51 17 8 54 46 88 90 44 59 57 84 57 112 1 47 16 70
77 118 43 35 52 47 58 84 13 86 17 97 37 104 11 3 26 20 33 38 8 18 20 38 28
45 8 6 18 23 21 36 5 18 15 26 41 31 31 5 34 8 23 22 -7 8 -36 25 -64 38 -39
17 -57 33 -77 66 -22 38 -24 51 -20 113 3 39 11 79 18 90 23 37 22 59 -3 93
-20 28 -24 42 -20 83 5 48 4 50 -49 108 -44 49 -60 60 -96 66 -76 12 -77 12
-77 60 0 40 -4 47 -37 69 -34 24 -39 24 -60 11 -12 -8 -39 -15 -60 -14 -35 0
-43 6 -107 86 -51 63 -77 107 -100 167 -17 45 -44 98 -60 119 l-28 37 4 137 5
138 50 110 51 110 50 5 c27 3 57 11 66 19 9 8 62 26 117 42 56 15 103 29 104
31 1 2 25 48 53 103 88 176 289 433 326 419 8 -3 23 7 35 21 19 26 20 29 4 63
-9 21 -18 53 -21 72 -2 19 -13 47 -24 63 -13 19 -18 36 -13 55 4 22 -1 34 -27
59 l-33 32 -73 -34 c-58 -28 -76 -42 -89 -71 -28 -58 -163 -132 -290 -160
l-81 -17 -41 -72 c-23 -39 -41 -78 -41 -87 0 -11 -18 -18 -69 -27 -99 -16
-141 -14 -179 9 -18 11 -39 35 -46 52 -13 31 -15 32 -71 29 -60 -3 -75 6 -75
42 0 25 53 45 139 53 39 4 71 10 71 14 0 17 -78 77 -121 93 -52 20 -65 40 -84
131 -16 72 -11 86 26 86 22 0 29 5 29 20 0 11 -6 22 -12 24 -7 2 -35 10 -62
17 -44 11 -47 14 -30 26 10 7 30 13 46 13 32 0 108 28 108 40 0 14 -18 22
-175 81 l-150 56 -42 -19 c-36 -16 -49 -17 -82 -8 -34 9 -42 16 -51 48 -5 20
-10 43 -10 49 0 7 -10 15 -22 17 -72 15 -101 18 -173 21 -65 3 -85 0 -105 -14z"/>
<path d="M6924 5186 c-9 -23 -60 -30 -86 -12 -27 19 -86 20 -109 3 -40 -30
-51 -155 -19 -217 19 -37 40 -53 40 -30 0 17 56 11 73 -8 10 -10 17 -35 17
-54 0 -20 6 -41 14 -47 12 -10 18 -7 32 13 23 37 104 90 104 70 0 -25 18 -6
25 27 6 24 17 35 52 51 l44 19 -3 52 c-3 49 -5 52 -33 57 -37 6 -66 26 -89 63
-20 29 -53 36 -62 13z"/>
</g>
</svg>
